client/src/assets/bell-slash-solid.svg

<?xml version="1.0" standalone="no"?>
<!DOCTYPE svg PUBLIC "-//W3C//DTD SVG 20010904//EN" "http://www.w3.org/TR/2001/REC-SVG-20010904/DTD/svg10.dtd">
<!-- Created using Krita: https://krita.org -->
<svg xmlns="http://www.w3.org/2000/svg" 
    xmlns:xlink="http://www.w3.org/1999/xlink"
    xmlns:krita="http://krita.org/namespaces/svg/krita"
    xmlns:sodipodi="http://sodipodi.sourceforge.net/DTD/sodipodi-0.dtd"
    width="153.6pt"
    height="122.88pt"
    viewBox="0 0 153.6 122.88">
<defs/>
<path id="shape0" transform="matrix(0.24 0 0 0.24 0.000212833580326625 0)" fill="#b9bbbe" stroke-opacity="0" stroke="#000000" stroke-width="0" stroke-linecap="square" stroke-linejoin="bevel" d="M633.819 458.1L543.199 388.05C543.389 386.67 543.999 385.39 543.999 383.99C544.049 376.44 541.389 368.72 535.389 362.28C516.069 341.52 479.919 310.29 479.919 207.99C479.919 130.29 425.439 68.09 351.979 52.83L351.979 32C351.979 14.33 337.659 0 319.999 0C302.339 0 288.019 14.33 288.019 32L288.019 52.84C247.689 61.22 213.359 83.91 190.429 115.41L45.4691 3.37C38.4891 -2.05 28.4291 -0.8 23.0091 6.18L3.36911 31.45C-2.05089 38.42 -0.800887 48.47 6.17911 53.9L594.529 508.63C601.509 514.06 611.559 512.8 616.989 505.82L636.629 480.55C642.049 473.58 640.799 463.53 633.819 458.1ZM157.229 251.54C148.619 319.5 120.819 344.87 104.609 362.29C98.6091 368.74 95.9491 376.45 95.9991 384C96.1091 400.4 108.979 416 128.099 416L370.019 416ZM319.999 512C355.319 512 383.969 483.35 383.969 448L256.029 448C256.029 483.35 284.679 512 319.999 512Z" sodipodi:nodetypes="ccccccccccccccccccccccccccccc"/>
</svg>

<svg aria-hidden="true" focusable="false" data-prefix="fas" data-icon="bell-slash" class="svg-inline--fa fa-bell-slash fa-w-20" role="img" xmlns="http://www.w3.org/2000/svg" viewBox="0 0 640 512"><path fill="currentColor" d="M633.82 458.1l-90.62-70.05c.19-1.38.8-2.66.8-4.06.05-7.55-2.61-15.27-8.61-21.71-19.32-20.76-55.47-51.99-55.47-154.29 0-77.7-54.48-139.9-127.94-155.16V32c0-17.67-14.32-32-31.98-32s-31.98 14.33-31.98 32v20.84c-40.33 8.38-74.66 31.07-97.59 62.57L45.47 3.37C38.49-2.05 28.43-.8 23.01 6.18L3.37 31.45C-2.05 38.42-.8 48.47 6.18 53.9l588.35 454.73c6.98 5.43 17.03 4.17 22.46-2.81l19.64-25.27c5.42-6.97 4.17-17.02-2.81-22.45zM157.23 251.54c-8.61 67.96-36.41 93.33-52.62 110.75-6 6.45-8.66 14.16-8.61 21.71.11 16.4 12.98 32 32.1 32h241.92L157.23 251.54zM320 512c35.32 0 63.97-28.65 63.97-64H256.03c0 35.35 28.65 64 63.97 64z"></path></svg>
